X: 37027
T: Silk Handkerchief, The
R: hornpipe
M: 4/4
K: Cmajor
G|c>de>c A>Bc>A|G>Ec>A G>EC>E|(3DDD D>E D>CD>E|F>ED>E F>GA>B|
c>de>c A>Bc>A|G>Ec>A G>EC>E|(3DDD D>E D>CD>E|F>GA>B c2zG:|
G>cc>B c2c>B|c>de>d c>BA>G|A>dd>e d2d>c|d>ce>d c>BA>G|
G>cc>B c2c>B|A>GE>c A>GE>C|(3DDD D>E D>CD>E|F>GA>B c2zG:|

